assets/images/img_frame.svg

<svg width="20" height="31" viewBox="0 0 20 31" fill="none" xmlns="http://www.w3.org/2000/svg">
<g clip-path="url(#clip0_2207_18529)">
<path d="M12.1442 29.7169C12.1442 29.7169 11.0863 30.0084 9.73442 29.969C8.38197 30.0084 7.32466 29.7169 7.32466 29.7169H7.26798C4.61545 28.6694 4.65427 25.2899 5.55508 22.9998C6.21313 21.327 7.78492 19.6985 9.73442 19.6985C11.6839 19.6985 13.2557 21.327 13.9131 22.9998C14.814 25.2899 14.8528 28.6694 12.2002 29.7169H12.1442Z" fill="#FFF3C5"/>
<path d="M16.4633 23.468C16.7147 24.5599 16.764 25.5043 16.7418 26.2291C16.7283 26.6599 16.6771 27.1021 16.5539 27.5092C16.3629 28.1439 15.9969 28.6924 15.3253 28.9751C15.3253 28.9751 16.5995 29.3597 16.5262 30.2233C16.4529 31.0863 14.1786 31.0669 13.1546 30.9312C12.1503 30.7987 11.9845 30.3484 12.1417 29.718H12.1977C14.8503 28.6705 14.8114 25.291 13.9106 23.0009C13.2532 21.328 11.6808 19.6996 9.7319 19.6996C7.78302 19.6996 6.21061 21.328 5.55256 23.0009C4.65175 25.291 4.61293 28.6705 7.26545 29.718H7.32214C7.47864 30.3484 7.3129 30.7987 6.30857 30.9312C5.28453 31.0669 3.01033 31.0863 2.93701 30.2233C2.86368 29.3597 4.1385 28.9751 4.1385 28.9751C3.03559 28.511 2.75586 27.3303 2.72197 26.2291C2.69979 25.5043 2.74908 24.5593 3.00047 23.468C2.70903 23.8082 1.4601 23.6832 1.27772 22.8133C1.09595 21.9428 1.49398 20.8252 2.38001 19.2155C3.13664 17.8397 4.16499 16.8985 5.21306 16.2162C6.57906 16.4063 8.06953 16.5421 9.7319 16.5421C11.3943 16.5421 12.8847 16.4063 14.2507 16.2162C15.2982 16.8985 16.3272 17.8397 17.0838 19.2155C17.9692 20.8252 18.3672 21.9428 18.1855 22.8133C18.0031 23.6832 16.7542 23.8082 16.4633 23.468Z" fill="#F8C788"/>
<mask id="mask0_2207_18529" style="mask-type:luminance" maskUnits="userSpaceOnUse" x="1" y="16" width="18" height="15">
<path d="M16.4712 23.468C16.7226 24.5599 16.7719 25.5043 16.7497 26.2291C16.7362 26.6599 16.685 27.1021 16.5618 27.5092C16.3708 28.1439 16.0048 28.6924 15.3332 28.9751C15.3332 28.9751 16.6074 29.3597 16.5341 30.2233C16.4608 31.0863 14.1866 31.0669 13.1625 30.9312C12.1582 30.7987 11.9925 30.3484 12.1496 29.718H12.2056C14.8582 28.6705 14.8193 25.291 13.9185 23.0009C13.2611 21.328 11.6887 19.6996 9.73981 19.6996C7.79093 19.6996 6.21852 21.328 5.56047 23.0009C4.65966 25.291 4.62085 28.6705 7.27337 29.718H7.33005C7.48656 30.3484 7.32081 30.7987 6.31649 30.9312C5.29245 31.0669 3.01824 31.0863 2.94492 30.2233C2.8716 29.3597 4.14641 28.9751 4.14641 28.9751C3.0435 28.511 2.76377 27.3303 2.72988 26.2291C2.7077 25.5043 2.75699 24.5593 3.00838 23.468C2.71694 23.8082 1.46801 23.6832 1.28563 22.8133C1.10387 21.9428 1.5019 20.8252 2.38792 19.2155C3.14455 17.8397 4.17291 16.8985 5.22098 16.2162C6.58698 16.4063 8.07744 16.5421 9.73981 16.5421C11.4022 16.5421 12.8926 16.4063 14.2587 16.2162C15.3061 16.8985 16.3351 17.8397 17.0917 19.2155C17.9771 20.8252 18.3751 21.9428 18.1934 22.8133C18.011 23.6832 16.7621 23.8082 16.4712 23.468Z" fill="white"/>
</mask>
<g mask="url(#mask0_2207_18529)">
<g style="mix-blend-mode:multiply" opacity="0.7">
<path d="M9.73947 15.781H3.6168L3.70984 16.3313C3.70984 16.3313 5.4979 17.1311 9.73947 17.1311C13.981 17.1311 15.7691 16.3313 15.7691 16.3313L15.8621 15.781H9.73947Z" fill="#F8C788"/>
</g>
</g>
<path d="M2.89822 23.4472C2.99002 22.7192 3.20691 22.0044 3.48233 21.3278C3.92349 20.189 4.54457 19.1046 5.37082 18.2097C5.48913 18.0815 5.68937 18.2435 5.58956 18.3892C5.04057 19.1671 4.55011 19.9701 4.16071 20.84C3.76699 21.7111 3.40654 22.586 3.10463 23.4959C3.06335 23.616 2.88158 23.5754 2.8976 23.4472H2.89822Z" fill="#705842"/>
<path d="M14.0769 18.221C14.9057 19.1134 15.5311 20.1934 15.979 21.3291C16.2587 22.0063 16.4799 22.7161 16.5785 23.4447C16.5976 23.5929 16.3869 23.6448 16.3388 23.5016C15.9648 22.3691 15.5212 21.2665 14.995 20.199C14.6734 19.5611 14.2895 18.9695 13.8816 18.3811C13.7935 18.2535 13.9704 18.1047 14.0769 18.221Z" fill="#705842"/>
<path d="M9.72106 4.13681C9.52204 4.30878 9.41113 4.58082 9.43763 4.82972C9.45303 4.97168 9.50417 5.05173 9.58982 5.06673C9.74509 5.09425 9.99586 4.94041 10.1444 4.63398C10.2516 4.41322 10.3193 4.17808 10.3415 3.95482C10.3052 3.95107 10.27 3.9492 10.2368 3.9492C9.99709 3.9492 9.82888 4.043 9.72044 4.13681H9.72106Z" fill="#F8C788"/>
<path d="M7.39705 4.05912C7.23562 4.80206 7.36193 5.47371 7.75133 5.95149C8.02798 6.29044 8.57328 6.68568 9.61087 6.68568C9.65215 6.68568 9.69467 6.68505 9.73718 6.6838C10.8623 6.64941 11.5363 5.86331 11.6873 5.14726C11.8247 4.49438 11.5641 3.91841 11.0077 3.64575C10.9455 3.6151 10.8832 3.58821 10.8216 3.56445C10.7791 3.21987 10.6435 2.91281 10.4223 2.66892C10.3299 2.56698 10.174 2.56073 10.0742 2.65391C9.9744 2.74709 9.96762 2.90593 10.0594 3.00724C10.174 3.13357 10.2541 3.28241 10.2997 3.45063C9.95961 3.43437 9.64661 3.53818 9.39522 3.75581C9.07112 4.0366 8.89737 4.46874 8.94173 4.88398C8.98117 5.2517 9.18943 5.50435 9.49873 5.55938C9.5394 5.56689 9.58068 5.57002 9.62196 5.57002C9.98796 5.57002 10.3687 5.29173 10.5807 4.85522C10.6996 4.6107 10.7772 4.35679 10.813 4.10665C11.1451 4.2805 11.2917 4.62821 11.2049 5.0422C11.0933 5.57314 10.5819 6.15661 9.7224 6.18288C8.99349 6.20539 8.44265 6.01403 8.13088 5.6313C7.84006 5.27484 7.75072 4.75453 7.87826 4.16606C8.15738 2.88467 8.81481 1.9635 10.0773 1.08673C10.1445 1.03982 10.1814 0.96478 10.1839 0.887859C10.1026 0.884732 10.0212 0.881605 9.93805 0.880355C9.86904 0.879104 9.80003 0.878478 9.72979 0.878478C9.65955 0.878478 9.58499 0.880355 9.5129 0.881605C8.33667 1.77026 7.67924 2.7621 7.39705 4.05849V4.05912ZM10.1389 4.63446C9.99042 4.94089 9.73965 5.09473 9.58438 5.06722C9.49873 5.05158 9.44759 4.97216 9.43219 4.8302C9.40569 4.5813 9.5166 4.30927 9.71562 4.13729C9.82344 4.04348 9.99227 3.94968 10.232 3.94968C10.2652 3.94968 10.3003 3.95155 10.3367 3.95531C10.3145 4.17856 10.2467 4.4137 10.1395 4.63446H10.1389Z" fill="#705842"/>
<path d="M18.5039 1.5037C18.73 2.03026 18.7664 2.61249 18.6185 3.13842C18.3985 3.92264 17.77 4.58178 16.754 4.74063C16.4262 4.18217 16.0491 3.66499 15.6148 3.20284C15.6918 3.05087 16.1046 2.32294 17.1293 1.86454C17.1293 1.86454 17.571 1.65317 18.5039 1.5037Z" fill="#FFF3C5"/>
<path d="M2.33736 1.86454C3.36263 2.32294 3.77484 3.05087 3.85185 3.20284C3.41747 3.66499 3.04039 4.18217 2.71259 4.74063C1.01449 4.47484 0.400186 2.81511 0.96273 1.5037C1.8962 1.65317 2.33736 1.86454 2.33736 1.86454Z" fill="#FFF3C5"/>
<path d="M5.23906 11.9605C6.13494 13.2769 5.63586 15.3432 5.23906 16.2124H5.23167C5.22612 16.2162 5.21996 16.2199 5.21441 16.2237C4.87923 16.178 4.55205 16.128 4.23104 16.0767C3.01045 15.8804 0.283372 15.3463 0.0270536 12.8892C-0.192912 10.7755 1.55572 10.0431 1.55572 10.0431C3.20823 10.1363 4.3438 10.6441 5.23906 11.9605Z" fill="#FC9268"/>
<path d="M19.3069 11.5991C19.4295 11.9555 19.4899 12.3827 19.4369 12.8892C19.2964 14.2369 18.4129 15.0055 17.4418 15.4582C16.6427 15.8303 15.7838 15.9879 15.2329 16.0767C14.9125 16.128 14.5854 16.178 14.2502 16.2237C14.2446 16.2199 14.2385 16.2162 14.2329 16.2124H14.2249C13.8281 15.3432 13.329 13.2769 14.2249 11.9605C15.1202 10.6441 16.2564 10.1363 17.9083 10.0431C17.9083 10.0431 18.9194 10.4665 19.3069 11.5991Z" fill="#FC9268"/>
<path d="M17.74 0.511616C18.0887 0.787404 18.342 1.13011 18.5003 1.50033C17.5675 1.64979 17.1257 1.86117 17.1257 1.86117C16.101 2.31956 15.6882 3.0475 15.6112 3.19946C15.1503 2.70917 14.6247 2.28017 14.024 1.92933C14.1121 0.571651 16.154 -0.739753 17.74 0.511616Z" fill="#F8C788"/>
<path d="M5.44186 1.92933C4.84111 2.28079 4.31554 2.70917 3.85466 3.19946C3.77764 3.0475 3.36544 2.31956 2.34016 1.86117C2.34016 1.86117 1.899 1.64979 0.965535 1.50033C1.12389 1.13011 1.37712 0.787404 1.72586 0.511616C3.31183 -0.739753 5.35375 0.571651 5.44186 1.92933Z" fill="#F8C788"/>
<path d="M13.3062 8.89558C13.7277 8.89558 14.069 9.24204 14.069 9.66979C14.069 10.0975 13.7277 10.4434 13.3062 10.4434C12.8848 10.4434 12.544 10.0969 12.544 9.66979C12.544 9.24266 12.8854 8.89558 13.3062 8.89558Z" fill="#705842"/>
<path d="M6.15967 8.89558C6.58051 8.89558 6.92247 9.24204 6.92247 9.66979C6.92247 10.0975 6.58051 10.4434 6.15967 10.4434C5.73884 10.4434 5.3975 10.0969 5.3975 9.66979C5.3975 9.24266 5.73884 8.89558 6.15967 8.89558Z" fill="#705842"/>
<path d="M17.9424 9.00956C17.9134 8.03085 17.7156 6.49056 16.8992 4.99843C16.8506 4.90962 16.8007 4.82207 16.7501 4.73515C16.4223 4.17669 16.0453 3.65951 15.6109 3.19736C15.15 2.70706 14.6244 2.27806 14.0237 1.92723C12.9867 1.32062 11.7248 0.946019 10.1875 0.884107C10.1851 0.961027 10.1487 1.03607 10.0809 1.08297C8.81844 1.95975 8.16039 2.88092 7.88189 4.1623C7.75435 4.75078 7.84369 5.27171 8.13452 5.62755C8.4469 6.01028 8.99774 6.20102 9.72603 6.17913C10.5856 6.15286 11.097 5.56939 11.2085 5.03845C11.2954 4.62445 11.1487 4.27675 10.8166 4.10289C10.7809 4.35304 10.7032 4.60694 10.5843 4.85146C10.3724 5.2886 9.99159 5.56626 9.6256 5.56626C9.58431 5.56626 9.54303 5.56251 9.50237 5.55563C9.19368 5.5006 8.98542 5.24795 8.94537 4.88023C8.90039 4.46498 9.07476 4.03285 9.39885 3.75206C9.65024 3.53443 9.96325 3.43062 10.3034 3.44688C10.2578 3.27865 10.1783 3.12982 10.0631 3.00349C9.97064 2.90218 9.97742 2.74334 10.0779 2.65016C10.1783 2.55698 10.3342 2.56323 10.426 2.66517C10.6472 2.90906 10.7833 3.21674 10.8252 3.5607C10.8875 3.58446 10.9491 3.61135 11.0113 3.642C11.5677 3.91466 11.8277 4.49 11.6909 5.14351C11.5406 5.85956 10.8659 6.64566 9.74082 6.68005C9.69769 6.6813 9.65579 6.68193 9.61451 6.68193C8.57691 6.68193 8.03162 6.28669 7.75497 5.94774C7.36495 5.46996 7.23925 4.79831 7.40068 4.05537C7.68288 2.75897 8.34093 1.76713 9.51654 0.878478C7.87142 0.909122 6.53314 1.2906 5.44256 1.92848C4.84181 2.27931 4.31624 2.70769 3.85536 3.19798C3.42097 3.66013 3.04389 4.17731 2.7161 4.73577C2.66557 4.8227 2.61567 4.91025 2.56699 4.99905C1.22378 7.45301 1.55589 10.0395 1.55589 10.0395C3.2084 10.1327 4.34396 10.6405 5.23923 11.9569C6.13511 13.2733 5.63603 15.3396 5.23923 16.2088H5.23184C5.22629 16.2126 5.22013 16.2163 5.21458 16.2201C6.58059 16.4102 8.07105 16.5459 9.73342 16.5459C11.3958 16.5459 12.8863 16.4102 14.2523 16.2201C14.2467 16.2163 14.2406 16.2126 14.235 16.2088H14.227C13.8302 15.3396 13.3311 13.2733 14.227 11.9569C15.1223 10.6405 16.2584 10.1327 17.9103 10.0395C17.9103 10.0395 17.9615 9.64181 17.9424 9.01018V9.00956ZM6.15729 10.4379C5.73646 10.4379 5.39512 10.0915 5.39512 9.66432C5.39512 9.2372 5.73646 8.89011 6.15729 8.89011C6.57812 8.89011 6.92009 9.23657 6.92009 9.66432C6.92009 10.0921 6.57812 10.4379 6.15729 10.4379ZM9.73342 10.8381C9.37359 10.8381 9.11604 10.7412 9.1487 10.5236C9.17951 10.3141 9.44753 10.2015 9.73342 10.2096C10.0187 10.2015 10.2867 10.3141 10.3181 10.5236C10.3502 10.7412 10.0926 10.8381 9.73342 10.8381ZM13.3089 10.4379C12.8881 10.4379 12.5468 10.0915 12.5468 9.66432C12.5468 9.2372 12.8881 8.89011 13.3089 8.89011C13.7298 8.89011 14.0717 9.23657 14.0717 9.66432C14.0717 10.0921 13.7304 10.4379 13.3089 10.4379Z" fill="#F8C788"/>
<path d="M10.5361 11.2091L9.97908 10.9252V10.8201C10.2021 10.7826 10.3414 10.6875 10.3173 10.5237C10.2859 10.3142 10.0179 10.2016 9.73262 10.2098C9.44673 10.2016 9.1787 10.3142 9.1479 10.5237C9.12325 10.6869 9.2625 10.7826 9.48616 10.8201V10.9252L8.92855 11.2091C8.80717 11.271 8.75787 11.4211 8.81887 11.5449C8.87987 11.6681 9.02775 11.7182 9.14975 11.6562L9.73324 11.3592L10.3161 11.6562C10.3519 11.6744 10.3894 11.6831 10.4264 11.6831C10.5164 11.6831 10.6039 11.6325 10.647 11.5449C10.708 11.4217 10.6587 11.271 10.5373 11.2091H10.5361Z" fill="#705842"/>
</g>
<defs>
<clipPath id="clip0_2207_18529">
<rect width="19.2" height="30.6" fill="white" transform="scale(1.01302)"/>
</clipPath>
</defs>
</svg>

<svg xmlns="http://www.w3.org/2000/svg" width="20" height="31" fill="none" viewBox="0 0 20 31"><g clip-path="url(#a)"><path fill="#FFF3C5" d="M12.144 29.717s-1.058.291-2.41.252c-1.352.04-2.41-.252-2.41-.252h-.056C4.615 28.669 4.654 25.29 5.555 23c.658-1.673 2.23-3.302 4.18-3.302 1.949 0 3.52 1.629 4.178 3.302.901 2.29.94 5.67-1.713 6.717h-.056Z"/><path fill="#F8C788" d="M16.463 23.468c.252 1.092.301 2.036.279 2.761-.014.43-.065.873-.188 1.28-.191.635-.557 1.183-1.229 1.466 0 0 1.274.385 1.201 1.248-.073.863-2.347.844-3.371.708-1.005-.132-1.17-.583-1.013-1.213h.056c2.652-1.047 2.613-4.427 1.713-6.717-.658-1.673-2.23-3.301-4.18-3.301-1.948 0-3.52 1.628-4.178 3.3-.901 2.291-.94 5.67 1.712 6.718h.057c.157.63-.01 1.08-1.013 1.213-1.024.136-3.299.155-3.372-.708-.073-.863 1.201-1.248 1.201-1.248-1.102-.464-1.382-1.645-1.416-2.746-.022-.725.027-1.67.278-2.761-.291.34-1.54.215-1.722-.655-.182-.87.216-1.988 1.102-3.598.757-1.375 1.785-2.317 2.833-2.999 1.366.19 2.857.326 4.519.326s3.153-.136 4.519-.326c1.047.682 2.076 1.624 2.833 3 .885 1.61 1.283 2.727 1.102 3.597-.183.87-1.432.995-1.723.655Z"/><mask id="b" width="18" height="15" x="1" y="16" maskUnits="userSpaceOnUse" style="mask-type:luminance"><path fill="#fff" d="M16.471 23.468c.252 1.092.3 2.036.279 2.761-.014.43-.065.873-.188 1.28-.191.635-.557 1.183-1.229 1.466 0 0 1.274.385 1.201 1.248-.073.863-2.347.844-3.371.708-1.005-.132-1.17-.583-1.013-1.213h.056c2.652-1.047 2.613-4.427 1.713-6.717-.658-1.673-2.23-3.301-4.18-3.301-1.948 0-3.52 1.628-4.179 3.3-.9 2.291-.94 5.67 1.713 6.718h.057c.157.63-.01 1.08-1.014 1.213-1.024.136-3.298.155-3.371-.708-.073-.863 1.201-1.248 1.201-1.248-1.103-.464-1.382-1.645-1.416-2.746-.022-.725.027-1.67.278-2.761-.291.34-1.54.215-1.722-.655-.182-.87.216-1.988 1.102-3.598.757-1.375 1.785-2.317 2.833-2.999 1.366.19 2.856.326 4.519.326 1.662 0 3.153-.136 4.519-.326 1.047.682 2.076 1.624 2.833 3 .885 1.61 1.283 2.727 1.101 3.597-.182.87-1.43.995-1.722.655Z"/></mask><g mask="url(#b)"><path fill="#F8C788" d="M9.74 15.781H3.616l.093.55s1.788.8 6.03.8c4.241 0 6.03-.8 6.03-.8l.092-.55H9.74Z" opacity=".7" style="mix-blend-mode:multiply"/></g><path fill="#705842" d="M2.898 23.447c.092-.728.309-1.443.584-2.12.441-1.138 1.063-2.222 1.889-3.117.118-.129.318.034.219.18-.55.777-1.04 1.58-1.43 2.45a27.345 27.345 0 0 0-1.055 2.656c-.042.12-.223.08-.207-.049Zm11.179-5.226c.829.892 1.454 1.972 1.902 3.108.28.677.5 1.387.6 2.116.019.148-.192.2-.24.057a25.64 25.64 0 0 0-1.344-3.303c-.322-.638-.705-1.23-1.113-1.818-.088-.128.088-.276.195-.16Z"/><path fill="#F8C788" d="M9.721 4.137a.83.83 0 0 0-.283.693c.015.142.066.222.152.237.155.027.406-.127.554-.433a2.04 2.04 0 0 0 .197-.68 1.024 1.024 0 0 0-.104-.005.77.77 0 0 0-.517.188h.001Z"/><path fill="#705842" d="M7.397 4.06c-.161.742-.035 1.414.354 1.891.277.34.822.735 1.86.735.041 0 .084 0 .126-.002 1.125-.035 1.8-.82 1.95-1.537.138-.653-.123-1.229-.68-1.501a2.264 2.264 0 0 0-.185-.082 1.607 1.607 0 0 0-.4-.895.244.244 0 0 0-.348-.015.253.253 0 0 0-.015.353c.115.127.195.275.24.444a1.262 1.262 0 0 0-.904.305 1.33 1.33 0 0 0-.453 1.128c.04.368.247.62.557.675.04.008.082.011.123.011.366 0 .747-.278.959-.715.119-.244.196-.498.232-.748.332.173.479.521.392.935-.112.531-.623 1.115-1.483 1.14-.729.023-1.28-.168-1.591-.55-.29-.357-.38-.877-.253-1.466.28-1.281.937-2.203 2.2-3.08a.252.252 0 0 0 .106-.198 10.435 10.435 0 0 0-.454-.01 8 8 0 0 0-.217.004c-1.176.888-1.834 1.88-2.116 3.176v.001Zm2.742.574c-.149.307-.4.46-.555.433-.085-.015-.136-.095-.152-.237a.83.83 0 0 1 .284-.693.77.77 0 0 1 .516-.187c.033 0 .068.002.105.005a2.04 2.04 0 0 1-.197.68h-.001Z"/><path fill="#FFF3C5" d="M18.504 1.504a2.47 2.47 0 0 1 .114 1.634c-.22.785-.848 1.444-1.864 1.603a8.57 8.57 0 0 0-1.14-1.538c.078-.152.49-.88 1.515-1.338 0 0 .442-.212 1.375-.361Zm-16.167.361c1.026.458 1.438 1.186 1.515 1.338-.435.462-.812.98-1.14 1.538C1.015 4.475.4 2.815.963 1.504c.934.15 1.375.36 1.375.36Z"/><path fill="#FC9268" d="M5.24 11.96c.895 1.317.396 3.383 0 4.252h-.008l-.018.012a43.168 43.168 0 0 1-.983-.147c-1.22-.197-3.948-.73-4.204-3.188a2.733 2.733 0 0 1 1.529-2.846c1.652.093 2.788.601 3.683 1.918Zm14.067-.36c.123.356.183.783.13 1.29-.14 1.347-1.024 2.115-1.995 2.568-.8.372-1.658.53-2.21.619-.32.051-.647.101-.982.147l-.017-.012h-.008c-.397-.869-.896-2.935 0-4.252.895-1.316 2.031-1.824 3.683-1.917 0 0 1.011.424 1.399 1.556Z"/><path fill="#F8C788" d="M17.74.512c.349.275.602.618.76.988-.933.15-1.374.361-1.374.361C16.1 2.32 15.688 3.047 15.61 3.2a7.04 7.04 0 0 0-1.587-1.27C14.112.572 16.154-.74 17.74.512ZM5.442 1.93c-.6.35-1.126.78-1.587 1.27-.077-.153-.49-.88-1.515-1.339 0 0-.441-.211-1.374-.36.158-.37.411-.714.76-.99 1.586-1.25 3.628.06 3.716 1.418Z"/><path fill="#705842" d="M13.306 8.896c.422 0 .763.346.763.774a.768.768 0 0 1-.763.773.768.768 0 0 1-.762-.773c0-.427.341-.774.762-.774Zm-7.146 0c.42 0 .762.346.762.774a.768.768 0 0 1-.762.773.768.768 0 0 1-.763-.773.77.77 0 0 1 .763-.774Z"/><path fill="#F8C788" d="M17.942 9.01c-.029-.98-.226-2.52-1.043-4.012a8.565 8.565 0 0 0-1.288-1.801 7.085 7.085 0 0 0-1.587-1.27c-1.037-.606-2.3-.981-3.836-1.043a.25.25 0 0 1-.107.199c-1.263.877-1.92 1.798-2.2 3.08-.127.588-.037 1.109.254 1.465.312.382.863.573 1.591.551.86-.026 1.371-.61 1.482-1.14.087-.415-.06-.762-.391-.936a2.54 2.54 0 0 1-.233.748c-.212.438-.592.715-.958.715a.74.74 0 0 1-.124-.01c-.308-.055-.517-.308-.557-.676a1.33 1.33 0 0 1 .454-1.128 1.26 1.26 0 0 1 .904-.305 1.06 1.06 0 0 0-.24-.444.252.252 0 0 1 .015-.353.244.244 0 0 1 .348.015c.221.244.357.552.4.896.061.023.123.05.185.081.557.273.817.848.68 1.502-.15.716-.825 1.502-1.95 1.536a4.351 4.351 0 0 1-.126.002c-1.038 0-1.583-.395-1.86-.734-.39-.478-.516-1.15-.354-1.893.282-1.296.94-2.288 2.116-3.177-1.646.031-2.984.413-4.074 1.05a7.068 7.068 0 0 0-1.588 1.27 8.565 8.565 0 0 0-1.288 1.801c-1.343 2.454-1.011 5.04-1.011 5.04 1.652.094 2.788.601 3.683 1.918.896 1.316.397 3.383 0 4.252h-.007l-.017.011c1.366.19 2.856.326 4.518.326 1.663 0 3.153-.136 4.52-.326l-.018-.011h-.008c-.397-.87-.896-2.936 0-4.252.895-1.317 2.031-1.824 3.683-1.918 0 0 .052-.397.032-1.029ZM6.157 10.438a.768.768 0 0 1-.762-.774c0-.427.341-.774.762-.774s.763.347.763.774a.768.768 0 0 1-.763.774Zm3.576.4c-.36 0-.617-.097-.584-.314.03-.21.299-.322.584-.314.286-.009.554.104.585.314.032.217-.225.314-.585.314Zm3.576-.4a.768.768 0 0 1-.762-.774c0-.427.341-.774.762-.774a.77.77 0 0 1 .763.774.768.768 0 0 1-.763.774Z"/><path fill="#705842" d="m10.536 11.21-.557-.285v-.105c.223-.037.362-.133.338-.296-.031-.21-.3-.322-.584-.314-.286-.008-.554.104-.585.314-.025.163.114.259.338.296v.105l-.557.284a.252.252 0 0 0-.11.336.245.245 0 0 0 .33.111l.584-.297.583.297a.242.242 0 0 0 .331-.111.252.252 0 0 0-.11-.336Z"/></g><defs><clipPath id="a"><path fill="#fff" d="M0 0h19.45v30.998H0z"/></clipPath></defs></svg>
